packages/landing-ui/public/feature-creditcard.svg

<svg width="75" height="75" viewBox="0 0 75 75" fill="none" xmlns="http://www.w3.org/2000/svg">
<path d="M70.2612 36.4023H59.652L63.702 34.064C65.9649 32.7576 66.743 29.8537 65.4365 27.5909L52.978 6.01166L52.6964 5.52402L50.8766 2.37174C50.2438 1.27562 49.2218 0.491506 47.9991 0.163826C46.7761 -0.163999 45.4994 0.0044545 44.4032 0.637255L21.8246 13.6731C21.2992 13.9764 21.1191 14.6484 21.4225 15.1738C21.7259 15.6992 22.3978 15.8794 22.9232 15.5759L45.5019 2.54005C46.7153 1.83958 48.2728 2.25661 48.9736 3.47035L50.2443 5.67124L3.81058 32.4797L2.53985 30.2787C2.20046 29.6908 2.11022 29.0059 2.286 28.3501C2.46178 27.6944 2.88218 27.1465 3.47016 26.8069L18.9833 17.8504C19.5087 17.5471 19.6887 16.8752 19.3854 16.3497C19.082 15.8243 18.4101 15.6441 17.8847 15.9477L2.3714 24.9043C1.27528 25.5371 0.491164 26.5589 0.163485 27.7816C-0.164048 29.0041 0.00396638 30.2812 0.636913 31.3773L2.45665 34.5291C2.4568 34.5293 2.4568 34.5296 2.45695 34.5297L4.27698 37.6821L15.1972 56.5966C15.6264 57.3398 16.2479 57.9483 16.9883 58.3626V70.2615C16.9883 72.8745 19.1141 75.0002 21.727 75.0002H54.9366C55.5435 75.0002 56.0352 74.5083 56.0352 73.9016C56.0352 73.2949 55.5435 72.803 54.9366 72.803H21.7272C20.3258 72.803 19.1857 71.6629 19.1857 70.2615V57.7046C19.1863 57.6921 19.1856 57.68 19.1857 57.6675V41.141C19.1857 39.7396 20.3258 38.5996 21.7272 38.5996H55.5498C55.5509 38.5996 55.5519 38.5997 55.5531 38.5997C55.5541 38.5997 55.5553 38.5996 55.5565 38.5996H70.2613C71.6627 38.5996 72.8029 39.7396 72.8029 41.141V70.2615C72.8029 71.6629 71.6629 72.803 70.2613 72.803H59.3315C58.7246 72.803 58.2329 73.2949 58.2329 73.9016C58.2329 74.5083 58.7246 75.0002 59.3315 75.0002H70.2613C72.8743 75.0002 75.0001 72.8745 75.0001 70.2615V41.141C75 38.5281 72.8741 36.4023 70.2612 36.4023ZM51.3429 7.57403L51.7292 8.24316L52.671 9.87438L6.23734 36.683L4.90919 34.3826L51.3429 7.57403ZM16.9885 41.141V55.3046L7.3358 38.5858L53.7696 11.7772L63.5337 28.6893C64.2343 29.9029 63.817 31.4603 62.6034 32.1611L55.2575 36.4023H21.7272C19.1142 36.4023 16.9885 38.5281 16.9885 41.141Z" fill="#687C94"/>
<path d="M56.9869 22.6615C56.6837 22.1361 56.0113 21.9561 55.4862 22.2594L44.9782 28.3262C44.4527 28.6296 44.2727 29.3015 44.5761 29.8269C44.7795 30.1794 45.1488 30.3764 45.5285 30.3764C45.7148 30.3764 45.9039 30.3289 46.0768 30.229L56.5848 24.1622C57.1102 23.8589 57.2902 23.1869 56.9869 22.6615Z" fill="#F6376D"/>
<path d="M59.0115 28.3656C59.5369 28.0623 59.7169 27.3903 59.4136 26.8649C59.1102 26.3395 58.438 26.1594 57.9128 26.4628L53.7096 28.8896C53.1842 29.193 53.0042 29.8649 53.3075 30.3903C53.5111 30.7428 53.8803 30.9398 54.26 30.9398C54.4463 30.9398 54.6354 30.8923 54.8083 30.7924L59.0115 28.3656Z" fill="#F6376D"/>
<path d="M53.2327 50.733H65.4493C66.7013 50.733 67.7198 49.7145 67.7198 48.4625V45.9528C67.7198 44.7009 66.7013 43.6824 65.4493 43.6824H53.2327C51.9808 43.6824 50.9623 44.7009 50.9623 45.9528V48.4625C50.9623 49.7145 51.9808 50.733 53.2327 50.733ZM53.1595 45.9528C53.1595 45.9124 53.1925 45.8796 53.2327 45.8796H65.4493C65.4896 45.8796 65.5225 45.9124 65.5225 45.9528V48.4625C65.5225 48.5029 65.4896 48.5357 65.4493 48.5357H53.2327C53.1925 48.5357 53.1595 48.5029 53.1595 48.4625V45.9528Z" fill="#F6376D"/>
<path d="M36.1726 50.8893V43.5261C36.1726 42.2741 35.1542 41.2556 33.9022 41.2556H24.1124C22.8604 41.2556 21.8419 42.2741 21.8419 43.5261V50.8893C21.8419 52.1412 22.8604 53.1597 24.1124 53.1597H33.9022C35.1542 53.1597 36.1726 52.1412 36.1726 50.8893ZM33.9754 43.5261V46.109H30.1058V43.4528H33.9022C33.9426 43.4528 33.9754 43.4857 33.9754 43.5261ZM24.1124 43.4528H27.9087V46.109H24.0391V43.5261C24.0391 43.4857 24.072 43.4528 24.1124 43.4528ZM24.0391 50.8893V48.3064H33.9754V50.8893C33.9754 50.9297 33.9426 50.9625 33.9022 50.9625H24.1124C24.072 50.9625 24.0391 50.9297 24.0391 50.8893Z" fill="#687C94"/>
<path d="M22.9406 63.0959C22.3338 63.0959 21.8419 63.5878 21.8419 64.1946C21.8419 64.8013 22.3338 65.2932 22.9406 65.2932H27.794C28.4008 65.2932 28.8927 64.8013 28.8927 64.1946C28.8927 63.5878 28.4008 63.0959 27.794 63.0959H22.9406Z" fill="#F6376D"/>
<path d="M32.6473 65.2932H47.2076C47.8144 65.2932 48.3062 64.8013 48.3062 64.1946C48.3062 63.5878 47.8144 63.0959 47.2076 63.0959H32.6473C32.0406 63.0959 31.5487 63.5878 31.5487 64.1946C31.5487 64.8013 32.0406 65.2932 32.6473 65.2932Z" fill="#F6376D"/>
<path d="M52.0609 65.2932H59.341C59.9479 65.2932 60.4397 64.8013 60.4397 64.1946C60.4397 63.5878 59.9479 63.0959 59.341 63.0959H52.0609C51.454 63.0959 50.9623 63.5878 50.9623 64.1946C50.9623 64.8013 51.4542 65.2932 52.0609 65.2932Z" fill="#687C94"/>
</svg>

<svg width="75" height="75" fill="none" xmlns="http://www.w3.org/2000/svg"><path d="M70.261 36.402H59.652l4.05-2.338a4.744 4.744 0 001.734-6.473L52.978 6.01l-.282-.487-1.82-3.152A4.708 4.708 0 0048 .164a4.707 4.707 0 00-3.596.473L21.825 13.673a1.099 1.099 0 001.098 1.903L45.502 2.54a2.545 2.545 0 013.472.93l1.27 2.201L3.811 32.48 2.54 30.279a2.525 2.525 0 01-.254-1.929 2.525 2.525 0 011.184-1.543l15.513-8.957a1.099 1.099 0 00-1.098-1.902L2.37 24.904a4.708 4.708 0 00-2.208 2.878 4.707 4.707 0 00.474 3.595l1.82 3.152 1.82 3.153 10.92 18.915a4.743 4.743 0 001.791 1.766V70.26a4.744 4.744 0 004.739 4.74h33.21a1.099 1.099 0 100-2.198h-33.21a2.544 2.544 0 01-2.541-2.541V57.704 41.14a2.544 2.544 0 012.541-2.541h48.534a2.544 2.544 0 012.542 2.541v29.12a2.544 2.544 0 01-2.542 2.542h-10.93a1.099 1.099 0 100 2.197h10.93a4.744 4.744 0 004.74-4.739v-29.12a4.744 4.744 0 00-4.74-4.739zM51.343 7.574l.386.67.942 1.63L6.237 36.683l-1.328-2.3L51.343 7.574zM16.988 41.141v14.164l-9.652-16.72L53.77 11.778l9.764 16.912a2.545 2.545 0 01-.93 3.472l-7.346 4.241h-33.53a4.744 4.744 0 00-4.74 4.739z" fill="#687C94"/><path d="M56.987 22.662a1.099 1.099 0 00-1.5-.403l-10.509 6.067a1.099 1.099 0 101.099 1.903l10.508-6.067c.525-.303.705-.975.402-1.5zM59.011 28.366a1.099 1.099 0 00-1.098-1.903L53.71 28.89a1.099 1.099 0 001.098 1.902l4.203-2.426zM53.233 50.733h12.216a2.273 2.273 0 002.27-2.27v-2.51a2.273 2.273 0 00-2.27-2.27H53.233a2.273 2.273 0 00-2.27 2.27v2.51a2.273 2.273 0 002.27 2.27zm-.073-4.78c0-.04.033-.073.073-.073h12.216c.04 0 .073.032.073.073v2.51c0 .04-.032.073-.073.073H53.233a.073.073 0 01-.073-.074v-2.51z" fill="#F6376D"/><path d="M36.173 50.89v-7.364a2.273 2.273 0 00-2.27-2.27h-9.79a2.273 2.273 0 00-2.271 2.27v7.363a2.273 2.273 0 002.27 2.27h9.79a2.273 2.273 0 002.27-2.27zm-2.198-7.364v2.583h-3.87v-2.656h3.797c.04 0 .073.033.073.073zm-9.863-.073h3.797v2.656h-3.87v-2.583c0-.04.033-.073.073-.073zm-.073 7.436v-2.583h9.936v2.583c0 .04-.032.073-.073.073h-9.79a.073.073 0 01-.073-.073z" fill="#687C94"/><path d="M22.94 63.096a1.099 1.099 0 100 2.197h4.854a1.099 1.099 0 100-2.197h-4.853zM32.647 65.293h14.56a1.099 1.099 0 100-2.197h-14.56a1.099 1.099 0 000 2.197z" fill="#F6376D"/><path d="M52.06 65.293h7.281a1.099 1.099 0 100-2.197h-7.28a1.099 1.099 0 100 2.197z" fill="#687C94"/></svg>
